img/instagram.svg

<svg xmlns="http://www.w3.org/2000/svg" width="24" height="24">
  <path fill-rule="evenodd" d="M23.93 16.949c-.057 1.275-.263 2.147-.558 2.911a6.14 6.14 0 01-3.513 3.512c-.759.295-1.636.501-2.912.558-1.28.056-1.688.07-4.947.07-3.259 0-3.667-.014-4.947-.07-1.276-.057-2.148-.263-2.912-.558a5.925 5.925 0 01-2.125-1.383A5.924 5.924 0 01.628 19.86c-.295-.759-.501-1.636-.558-2.911-.056-1.28-.07-1.688-.07-4.947 0-3.258.014-3.666.075-4.951.056-1.275.263-2.147.558-2.911.3-.797.774-1.524 1.383-2.124A5.876 5.876 0 014.145.628C4.905.333 5.782.127 7.057.07 8.338.014 8.746 0 12.005 0c3.259 0 3.667.014 4.952.075 1.275.056 2.147.263 2.912.558.797.3 1.524.774 2.124 1.383a5.864 5.864 0 011.388 2.128c.296.76.502 1.637.558 2.912.056 1.28.061 1.688.061 4.946 0 3.259-.014 3.667-.07 4.947zm-2.153-9.785c-.051-1.168-.248-1.805-.412-2.227a3.751 3.751 0 00-.896-1.379 3.696 3.696 0 00-1.379-.895c-.422-.164-1.055-.361-2.227-.413-1.262-.056-1.641-.07-4.849-.07-3.203 0-3.583.014-4.849.07-1.167.052-1.805.249-2.227.413-.521.192-.99.497-1.379.895a3.648 3.648 0 00-.9 1.379c-.164.422-.361 1.055-.413 2.227-.056 1.261-.07 1.645-.07 4.848 0 3.202.014 3.582.07 4.848.052 1.167.249 1.805.413 2.227.192.52.497.989.896 1.378.384.399.858.703 1.378.896.422.164 1.055.361 2.228.412 1.261.056 1.646.07 4.848.07 3.203 0 3.583-.014 4.849-.07 1.168-.051 1.806-.248 2.228-.412a3.99 3.99 0 002.279-2.279c.164-.422.361-1.055.412-2.227.057-1.266.071-1.641.071-4.843 0-3.203-.014-3.582-.071-4.848zm-3.362-.131a1.44 1.44 0 110-2.88 1.44 1.44 0 010 2.88zm-6.41 11.135a6.168 6.168 0 01-6.167-6.166 6.168 6.168 0 0112.333 0 6.168 6.168 0 01-6.166 6.166zm0-10.165a4 4 0 100 8 4 4 0 000-8z"/>
</svg>

<svg 
 xmlns="http://www.w3.org/2000/svg"
 xmlns:xlink="http://www.w3.org/1999/xlink"
 width="24px" height="24px">
<path fill-rule="evenodd"  fill="rgb(0, 0, 0)"
 d="M23.930,16.949 C23.873,18.224 23.667,19.096 23.372,19.860 C22.748,21.473 21.473,22.748 19.859,23.372 C19.100,23.667 18.223,23.873 16.947,23.930 C15.667,23.986 15.259,24.000 12.000,24.000 C8.741,24.000 8.333,23.986 7.053,23.930 C5.777,23.873 4.905,23.667 4.141,23.372 C3.344,23.072 2.617,22.598 2.016,21.989 C1.407,21.389 0.933,20.667 0.628,19.860 C0.333,19.101 0.127,18.224 0.070,16.949 C0.014,15.669 0.000,15.261 0.000,12.002 C0.000,8.744 0.014,8.336 0.075,7.051 C0.131,5.776 0.338,4.904 0.633,4.140 C0.933,3.343 1.407,2.616 2.016,2.016 C2.617,1.402 3.339,0.933 4.145,0.628 C4.905,0.333 5.782,0.127 7.057,0.070 C8.338,0.014 8.746,0.000 12.005,0.000 C15.264,0.000 15.672,0.014 16.957,0.075 C18.232,0.131 19.104,0.338 19.869,0.633 C20.666,0.933 21.393,1.407 21.993,2.016 C22.607,2.616 23.076,3.338 23.381,4.144 C23.677,4.904 23.883,5.781 23.939,7.056 C23.995,8.336 24.000,8.744 24.000,12.002 C24.000,15.261 23.986,15.669 23.930,16.949 ZM21.777,7.164 C21.726,5.996 21.529,5.359 21.365,4.937 C21.172,4.416 20.867,3.948 20.469,3.558 C20.084,3.160 19.611,2.855 19.090,2.663 C18.668,2.499 18.035,2.302 16.863,2.250 C15.601,2.194 15.222,2.180 12.014,2.180 C8.811,2.180 8.431,2.194 7.165,2.250 C5.998,2.302 5.360,2.499 4.938,2.663 C4.417,2.855 3.948,3.160 3.559,3.558 C3.156,3.943 2.851,4.416 2.659,4.937 C2.495,5.359 2.298,5.992 2.246,7.164 C2.190,8.425 2.176,8.809 2.176,12.012 C2.176,15.214 2.190,15.594 2.246,16.860 C2.298,18.027 2.495,18.665 2.659,19.087 C2.851,19.607 3.156,20.076 3.555,20.465 C3.939,20.864 4.413,21.168 4.933,21.361 C5.355,21.525 5.988,21.722 7.161,21.773 C8.422,21.829 8.807,21.843 12.009,21.843 C15.212,21.843 15.592,21.829 16.858,21.773 C18.026,21.722 18.664,21.525 19.086,21.361 C20.131,20.957 20.961,20.127 21.365,19.082 C21.529,18.660 21.726,18.027 21.777,16.855 C21.834,15.589 21.848,15.214 21.848,12.012 C21.848,8.809 21.834,8.430 21.777,7.164 ZM18.415,7.033 C17.620,7.033 16.975,6.388 16.975,5.593 C16.975,4.798 17.620,4.154 18.415,4.154 C19.210,4.154 19.855,4.798 19.855,5.593 C19.855,6.388 19.210,7.033 18.415,7.033 ZM12.005,18.168 C8.600,18.168 5.838,15.406 5.838,12.002 C5.838,8.599 8.600,5.837 12.005,5.837 C15.409,5.837 18.171,8.599 18.171,12.002 C18.171,15.406 15.409,18.168 12.005,18.168 ZM12.005,8.003 C9.796,8.003 8.005,9.794 8.005,12.002 C8.005,14.211 9.796,16.002 12.005,16.002 C14.213,16.002 16.005,14.211 16.005,12.002 C16.005,9.794 14.213,8.003 12.005,8.003 Z"/>
</svg>
